X: 30768
T: Orphan, The
R: jig
M: 6/8
K: Eminor
E2F EDB,|GFG AGA|BdB ABA|GEF EDB,|
~A,3 EDB,|GFG AGA|BdB ABA|1 GED EB,D:|2 GED E3||
efe dBA|GAB ~d3|edB AGA|BAG EDB,|
~A,3 EDB,|GFG AGA|BdB ABA|GED E3:|

